ix/printer_outline.svg

<svg viewBox="0 0 24 24" fill="none" xmlns="http://www.w3.org/2000/svg" height="1em" width="1em">
  <path d="M16.75 7.75h-9.5c-.41 0-.75-.34-.75-.75V5c0-2.56 1.19-3.75 3.75-3.75h3.5c2.56 0 3.75 1.19 3.75 3.75v2c0 .41-.34.75-.75.75ZM8 6.25h8V5c0-1.7-.55-2.25-2.25-2.25h-3.5C8.55 2.75 8 3.3 8 5v1.25Zm5 16.5h-2c-2.42 0-3.75-1.33-3.75-3.75v-4c0-.41.34-.75.75-.75h8c.41 0 .75.34.75.75v4c0 2.42-1.33 3.75-3.75 3.75Zm-4.25-7V19c0 1.58.67 2.25 2.25 2.25h2c1.58 0 2.25-.67 2.25-2.25v-3.25h-6.5Z" fill="#292D32"/>
  <path d="M18 18.75h-2c-.41 0-.75-.34-.75-.75v-2.25h-6.5V18c0 .41-.34.75-.75.75H6c-2.42 0-3.75-1.33-3.75-3.75v-5c0-2.42 1.33-3.75 3.75-3.75h12c2.42 0 3.75 1.33 3.75 3.75v5c0 2.42-1.33 3.75-3.75 3.75Zm-1.25-1.5H18c1.58 0 2.25-.67 2.25-2.25v-5c0-1.58-.67-2.25-2.25-2.25H6c-1.58 0-2.25.67-2.25 2.25v5c0 1.58.67 2.25 2.25 2.25h1.25V15c0-.41.34-.75.75-.75h8c.41 0 .75.34.75.75v2.25Z" fill="#292D32"/>
  <path d="M17 15.75H7c-.41 0-.75-.34-.75-.75s.34-.75.75-.75h10c.41 0 .75.34.75.75s-.34.75-.75.75Zm-7-4H7c-.41 0-.75-.34-.75-.75s.34-.75.75-.75h3c.41 0 .75.34.75.75s-.34.75-.75.75Z" fill="#292D32"/>
</svg>

<svg viewBox="0 0 24 24" fill="none" xmlns="http://www.w3.org/2000/svg" height="1em" width="1em">
  <path d="M16.75 7.75H7.25C6.84 7.75 6.5 7.41 6.5 7V5C6.5 2.44 7.69 1.25 10.25 1.25H13.75C16.31 1.25 17.5 2.44 17.5 5V7C17.5 7.41 17.16 7.75 16.75 7.75ZM8 6.25H16V5C16 3.3 15.45 2.75 13.75 2.75H10.25C8.55 2.75 8 3.3 8 5V6.25Z" fill="#292D32"/>
  <path d="M13 22.75H11C8.58 22.75 7.25 21.42 7.25 19V15C7.25 14.59 7.59 14.25 8 14.25H16C16.41 14.25 16.75 14.59 16.75 15V19C16.75 21.42 15.42 22.75 13 22.75ZM8.75 15.75V19C8.75 20.58 9.42 21.25 11 21.25H13C14.58 21.25 15.25 20.58 15.25 19V15.75H8.75Z" fill="#292D32"/>
  <path d="M18 18.75H16C15.59 18.75 15.25 18.41 15.25 18V15.75H8.75V18C8.75 18.41 8.41 18.75 8 18.75H6C3.58 18.75 2.25 17.42 2.25 15V10C2.25 7.58 3.58 6.25 6 6.25H18C20.42 6.25 21.75 7.58 21.75 10V15C21.75 17.42 20.42 18.75 18 18.75ZM16.75 17.25H18C19.58 17.25 20.25 16.58 20.25 15V10C20.25 8.42 19.58 7.75 18 7.75H6C4.42 7.75 3.75 8.42 3.75 10V15C3.75 16.58 4.42 17.25 6 17.25H7.25V15C7.25 14.59 7.59 14.25 8 14.25H16C16.41 14.25 16.75 14.59 16.75 15V17.25Z" fill="#292D32"/>
  <path d="M17 15.75H7C6.59 15.75 6.25 15.41 6.25 15C6.25 14.59 6.59 14.25 7 14.25H17C17.41 14.25 17.75 14.59 17.75 15C17.75 15.41 17.41 15.75 17 15.75Z" fill="#292D32"/>
  <path d="M10 11.75H7C6.59 11.75 6.25 11.41 6.25 11C6.25 10.59 6.59 10.25 7 10.25H10C10.41 10.25 10.75 10.59 10.75 11C10.75 11.41 10.41 11.75 10 11.75Z" fill="#292D32"/>
</svg>
